assets/images/gizmodo.svg

<svg width="132" height="32" viewBox="0 0 132 32" fill="none" xmlns="http://www.w3.org/2000/svg">
<path d="M21.6091 22.7217V8.25743C21.6091 7.50495 21.7758 6.94059 22.13 6.56436C22.4634 6.18812 22.9219 6 23.4636 6C24.0263 6 24.4847 6.18812 24.8181 6.56436C25.1724 6.94059 25.3391 7.50495 25.3391 8.25743V22.7217C25.3391 23.4741 25.1724 24.0594 24.8181 24.4356C24.4639 24.8119 24.0263 25 23.4636 25C22.9219 25 22.4843 24.8119 22.1509 24.4356C21.7966 24.0385 21.6091 23.4741 21.6091 22.7217Z" fill="white"/>
<path d="M122.444 24.9791C117.235 24.9791 112.984 20.7151 112.984 15.4895C112.984 10.264 117.235 6 122.444 6C127.654 6 131.905 10.264 131.905 15.4895C131.905 20.736 127.675 24.9791 122.444 24.9791ZM122.444 9.84598C119.339 9.84598 116.818 12.3751 116.818 15.4895C116.818 18.604 119.339 21.1331 122.444 21.1331C125.549 21.1331 128.071 18.604 128.071 15.4895C128.071 12.396 125.549 9.84598 122.444 9.84598Z" fill="white"/>
<path d="M79.9972 24.9791C74.7877 24.9791 70.5367 20.7151 70.5367 15.4895C70.5367 10.264 74.7877 6 79.9972 6C85.2067 6 89.4576 10.264 89.4576 15.4895C89.4576 20.736 85.2067 24.9791 79.9972 24.9791ZM79.9972 9.84598C76.8923 9.84598 74.3709 12.3751 74.3709 15.4895C74.3709 18.604 76.8923 21.1331 79.9972 21.1331C83.102 21.1331 85.6234 18.604 85.6234 15.4895C85.6234 12.396 83.102 9.84598 79.9972 9.84598Z" fill="white"/>
<path d="M109.962 15.4895C109.962 13.3993 109.275 11.4554 108.129 9.88779C106.461 7.60946 103.794 6.10451 100.773 6C100.668 6 100.585 6 100.481 6H95.7298C94.9171 6 94.3337 6.18812 93.9794 6.56436C93.6252 6.94059 93.4376 7.52585 93.4376 8.36194V22.6381C93.4376 23.4741 93.6252 24.0594 93.9794 24.4356C94.3337 24.8119 94.938 25 95.7298 25H100.481C100.585 25 100.668 25 100.773 25C103.794 24.9164 106.441 23.4114 108.129 21.1122C109.275 19.5237 109.962 17.5798 109.962 15.4895ZM101.169 21.0913C100.71 21.1122 100.21 21.1331 99.6891 21.1331H97.2093V9.84598H99.6891C100.21 9.84598 100.71 9.84598 101.169 9.88779C102.815 10.0759 104.232 10.9956 105.128 12.2915C105.753 13.1903 106.128 14.2981 106.128 15.4895C106.128 16.681 105.753 17.7679 105.128 18.6667C104.232 20.0044 102.815 20.9032 101.169 21.0913Z" fill="white"/>
<path d="M65.1813 6.08356C64.4936 5.87454 63.7435 6.14626 63.3475 6.75243L57.6379 15.4686L51.9283 6.75243C51.5324 6.14626 50.7822 5.87454 50.0946 6.08356C49.4069 6.29258 48.9277 6.96145 48.9277 7.69302V23.1815C48.9277 24.1012 49.657 24.8745 50.5739 24.8745C51.4699 24.8745 52.2201 24.1221 52.2201 23.1815V13.2112L56.2626 19.3982C56.2626 19.3982 56.2626 19.3982 56.2626 19.4191C56.2626 19.4191 56.2626 19.44 56.2835 19.44C56.3043 19.4818 56.3251 19.5236 56.3668 19.5445C56.3877 19.5654 56.3877 19.5654 56.4085 19.5863C56.4293 19.6072 56.4502 19.649 56.471 19.6699C56.4918 19.6908 56.5127 19.7117 56.5335 19.7326C56.5544 19.7535 56.5752 19.7535 56.5752 19.7744C56.6169 19.7953 56.6377 19.8162 56.6794 19.858L56.7002 19.8789C56.7419 19.8998 56.7836 19.9207 56.8044 19.9416C56.8253 19.9416 56.8253 19.9625 56.8253 19.9625C56.8461 19.9834 56.8878 19.9834 56.9086 20.0043C57.0753 20.088 57.242 20.1298 57.4296 20.1507C57.4712 20.1507 57.4921 20.1507 57.5337 20.1507C57.5546 20.1507 57.5754 20.1507 57.5963 20.1507C57.6171 20.1507 57.6379 20.1507 57.6588 20.1507C57.7005 20.1507 57.7213 20.1507 57.763 20.1507C57.9297 20.1298 58.1172 20.088 58.2839 20.0043C58.3048 19.9834 58.3464 19.9834 58.3673 19.9625L58.3881 19.9416C58.4298 19.9207 58.4715 19.8998 58.4923 19.8789C58.5131 19.8789 58.5131 19.858 58.5131 19.858C58.5548 19.8371 58.5756 19.8162 58.6173 19.7744C58.6382 19.7535 58.659 19.7535 58.659 19.7326C58.6798 19.7117 58.7007 19.6908 58.7215 19.6699C58.7423 19.649 58.7632 19.6281 58.784 19.5863C58.8049 19.5654 58.8049 19.5654 58.8257 19.5445C58.8465 19.5027 58.8882 19.4818 58.9091 19.44L58.9299 19.4191C58.9299 19.4191 58.9299 19.4191 58.9299 19.3982L62.9725 13.2112V23.1815C62.9725 24.1012 63.7018 24.8745 64.6187 24.8745C65.5147 24.8745 66.2649 24.1221 66.2649 23.1815V7.69302C66.3482 6.96145 65.8689 6.29258 65.1813 6.08356Z" fill="white"/>
<path d="M43.3431 24.4147H31.0695C30.4235 24.4147 29.715 24.0176 29.4441 23.3905C29.1732 22.7635 29.1316 21.9065 29.6942 21.2167L39.7173 9.53245H31.4237C30.5277 9.53245 29.7775 8.73817 29.7775 7.77668C29.7775 6.81518 30.5069 6.20902 31.4237 6.20902H42.5929C43.2389 6.20902 43.9057 6.31353 44.4892 6.9615C45.031 7.54675 44.9893 8.82178 44.4058 9.57426L34.7161 20.9032H43.3431C44.2599 20.9032 44.9059 21.6975 44.9059 22.659C44.9059 23.6205 44.2599 24.4147 43.3431 24.4147Z" fill="white"/>
<path d="M9.39795 24.9791C6.66817 24.9791 4.20928 23.8922 2.43805 21.9274C0.896035 20.2134 0 17.9351 0 15.6777C0 8.63366 5.83465 6 9.52298 6C13.1488 6 15.7952 7.77668 15.9202 7.86029C16.7329 8.42464 16.9621 9.53245 16.3995 10.3685C15.8577 11.2046 14.7533 11.4136 13.9406 10.8702C13.899 10.8493 12.0027 9.61606 9.52298 9.61606C7.20996 9.61606 4.02174 11.1419 4.02174 15.6777C4.02174 18.2486 5.93884 21.3003 9.43962 21.3003C11.4192 21.3003 12.7945 20.7778 13.6072 20.2552V17.5798H10.8983C9.9189 17.5798 9.12705 16.7646 9.12705 15.7822C9.12705 14.7789 9.9189 13.9846 10.8983 13.9846H15.4201C16.3995 13.9846 17.1914 14.7998 17.1914 15.7822V21.154C17.1914 21.6348 17.0038 22.1155 16.6496 22.4499C15.4618 23.6205 12.8362 24.9791 9.39795 24.9791Z" fill="white"/>
</svg>

<svg width="132" height="32" fill="none" xmlns="http://www.w3.org/2000/svg"><path d="M21.61 22.722V8.257c0-.752.166-1.316.52-1.693.333-.376.792-.564 1.334-.564.562 0 1.02.188 1.354.564.354.377.521.941.521 1.693v14.465c0 .752-.167 1.337-.52 1.714-.355.376-.793.564-1.355.564-.542 0-.98-.188-1.313-.564-.354-.398-.542-.962-.542-1.714zm100.834 2.258c-5.209 0-9.46-4.265-9.46-9.49 0-5.226 4.251-9.49 9.46-9.49 5.21 0 9.461 4.264 9.461 9.49 0 5.246-4.23 9.49-9.461 9.49zm0-15.134c-3.105 0-5.626 2.53-5.626 5.643 0 3.115 2.521 5.644 5.626 5.644 3.105 0 5.627-2.529 5.627-5.643 0-3.094-2.522-5.644-5.627-5.644zM79.997 24.98c-5.21 0-9.46-4.265-9.46-9.49 0-5.226 4.25-9.49 9.46-9.49 5.21 0 9.46 4.264 9.46 9.49 0 5.246-4.25 9.49-9.46 9.49zm0-15.134c-3.105 0-5.626 2.53-5.626 5.643 0 3.115 2.521 5.644 5.626 5.644 3.105 0 5.626-2.529 5.626-5.643 0-3.094-2.521-5.644-5.626-5.644zm29.965 5.644c0-2.09-.687-4.035-1.833-5.602A9.511 9.511 0 00100.773 6H95.73c-.813 0-1.396.188-1.75.564-.355.377-.542.962-.542 1.798v14.276c0 .836.187 1.421.541 1.798.355.376.959.564 1.75.564h5.044c3.021-.084 5.668-1.589 7.356-3.888a9.595 9.595 0 001.833-5.622zm-8.793 5.601c-.459.021-.959.042-1.48.042h-2.48V9.846h2.48c.521 0 1.021 0 1.48.042 1.646.188 3.063 1.108 3.959 2.403.625.9 1 2.007 1 3.198a5.532 5.532 0 01-1 3.178 5.493 5.493 0 01-3.959 2.424zM65.181 6.084a1.63 1.63 0 00-1.834.668l-5.71 8.717-5.709-8.717a1.63 1.63 0 00-1.833-.668c-.688.209-1.167.877-1.167 1.609v15.488c0 .92.729 1.694 1.646 1.694.896 0 1.646-.753 1.646-1.694v-9.97l4.043 6.187v.021s0 .021.02.021c.021.042.042.084.084.104l.041.042c.021.021.042.063.063.084l.063.063c.02.02.041.02.041.041a.353.353 0 01.104.084l.021.02c.042.022.084.043.104.064.021 0 .021.02.021.02.021.021.063.021.084.042.166.084.333.126.52.147h.335c.167-.021.354-.063.52-.147.022-.02.063-.02.084-.042l.021-.02a.429.429 0 00.104-.063c.021 0 .021-.021.021-.021.042-.02.063-.042.104-.084.021-.02.042-.02.042-.041l.063-.063c.02-.021.041-.042.062-.084l.042-.041c.02-.042.062-.063.083-.105l.02-.02v-.022l4.043-6.187v9.97c0 .92.73 1.694 1.647 1.694.896 0 1.646-.753 1.646-1.694V7.694c.083-.732-.396-1.4-1.084-1.61zM43.343 24.415H31.07c-.645 0-1.354-.397-1.625-1.024-.27-.627-.312-1.484.25-2.174L39.717 9.532h-8.293c-.896 0-1.646-.794-1.646-1.755 0-.962.729-1.568 1.646-1.568h11.169c.646 0 1.313.105 1.896.753.542.585.5 1.86-.083 2.612l-9.69 11.33h8.627c.917 0 1.563.794 1.563 1.755 0 .962-.646 1.756-1.563 1.756zm-33.945.565c-2.73 0-5.189-1.088-6.96-3.053C.896 20.213 0 17.935 0 15.677 0 8.635 5.835 6 9.523 6c3.626 0 6.272 1.777 6.397 1.86a1.813 1.813 0 01.48 2.508 1.757 1.757 0 01-2.46.502c-.041-.02-1.937-1.254-4.417-1.254-2.313 0-5.501 1.526-5.501 6.062 0 2.57 1.917 5.622 5.418 5.622 1.98 0 3.354-.522 4.167-1.045V17.58h-2.709c-.98 0-1.77-.815-1.77-1.798 0-1.003.79-1.797 1.77-1.797h4.522c.98 0 1.771.815 1.771 1.797v5.372c0 .48-.187.962-.541 1.296-1.188 1.17-3.814 2.53-7.252 2.53z" fill="#fff"/></svg>
